MA3T1/113/aimg/morado.svg

<svg clip-rule="evenodd" fill-rule="evenodd" stroke-linejoin="round" stroke-miterlimit="2" viewBox="0 0 118 120" xmlns="http://www.w3.org/2000/svg"><g fill-rule="nonzero"><path d="m0-26.646c2.004 1.615 2.248 1.807 3.135 2.721 4.33 4.459 4.566 12.724-1.034 18.226-5.451 5.355-12.282 5.699-17.096 1.965-1.289-1-3.296-2.876-4.201-5.009z" fill="#9755a2" transform="matrix(4.16667 0 0 4.16667 88.85419453 122.12958469)"/><path d="m-9.063-22.722c-6.036-.057-11.332 5.631-11.001 13.371.323 7.532 5.015 12.382 11.001 12.935 5.125.471 11.105-5.271 10.998-12.809-.106-7.539-5.439-13.445-10.998-13.497" fill="#c58abd" transform="matrix(-3.04430243544 -2.84488560924 -2.84488560924 3.04430243544 -1.92504476 55.74203158)"/><path d="m0-21.474c-3.495 0-7.328 1.586-10.2 4.572-2.579 2.684-3.908 6.287-3.646 9.886.191 2.621 1.239 4.852 2.874 6.12 4.74 3.675 11.211 2.914 16.105-1.894 2.678-2.631 4.18-6.074 4.122-9.444-.047-2.77-1.119-5.254-3.016-6.994-1.654-1.517-3.868-2.246-6.239-2.246m-4.291 24.064c-2.616 0-5.174-.845-7.394-2.567-1.896-1.47-3.106-4.005-3.321-6.955-.286-3.927 1.16-7.855 3.968-10.775 5.246-5.457 13.518-6.546 18.063-2.378 2.135 1.958 3.34 4.739 3.394 7.832.063 3.687-1.566 7.439-4.471 10.293-3.061 3.007-6.704 4.549-10.239 4.55" fill="#231f20" transform="matrix(4.16667 0 0 4.16667 62.67500692 94.25456239)"/><path d="m0 16.074c-4.777.202-6.18-3.724-6.301-5.389-.192-2.629.831-5.381 2.734-7.361 2.123-2.208 5.038-3.526 7.797-3.526 1.658 0 3.092.477 4.038 1.344 1.224 1.123 1.916 2.764 1.948 4.621.043 2.471-1.1 5.036-3.136 7.036-2.182 2.142-4.63 3.275-7.08 3.275" fill="#9755a2" transform="matrix(4.16667 0 0 4.16667 43.86249187 18.42116839)"/><path d="m0 15.008c-4.46.188-5.77-3.477-5.883-5.031-.179-2.454.776-5.024 2.553-6.872 1.982-2.062 4.703-3.293 7.279-3.293 1.548 0 2.886.446 3.769 1.256 1.144 1.047 1.79 2.58 1.82 4.314.04 2.307-1.028 4.7-2.929 6.567-2.036 2.001-4.321 3.059-6.609 3.059" fill="#c58abd" transform="matrix(4.16667 0 0 4.16667 46.82082757 24.69200674)"/><g fill="#231f20"><path d="m0-15.121c-2.604 0-5.362 1.251-7.377 3.348-1.792 1.864-2.754 4.449-2.574 6.916.103 1.411 1.311 5.033 5.696 4.849h.025c2.294 0 4.602-1.075 6.672-3.109 1.923-1.889 3.002-4.298 2.962-6.609-.029-1.697-.654-3.19-1.759-4.204-.839-.768-2.133-1.191-3.645-1.191m-4.589 16.284c-4.984 0-6.4-4.254-6.523-5.936-.203-2.79.88-5.708 2.896-7.807 2.23-2.319 5.301-3.704 8.216-3.704 1.804 0 3.377.531 4.431 1.497 1.343 1.231 2.102 3.021 2.137 5.04.045 2.63-1.161 5.349-3.311 7.46-2.288 2.248-4.873 3.438-7.475 3.442-.125.005-.25.008-.371.008" transform="matrix(4.16667 0 0 4.16667 61.4833393 83.00872006)"/><path d="m0 26.418c-2.65 0-5.24-.856-7.489-2.6-.966-.75-3.327-2.76-4.38-5.242-.125-.296.013-.637.308-.762.296-.125.638.012.763.308.972 2.292 3.324 4.235 4.022 4.776 4.806 3.728 11.369 2.957 16.332-1.919 4.43-4.354 5.9-12.386 1.024-17.407-.837-.862-1.073-1.052-2.912-2.536l-.17-.138c-.251-.201-.29-.567-.088-.817.202-.251.568-.289.818-.088l.171.138c1.846 1.489 2.13 1.718 3.016 2.631 2.248 2.314 3.477 5.647 3.371 9.144-.112 3.699-1.68 7.215-4.415 9.903-3.101 3.046-6.791 4.608-10.371 4.609" transform="matrix(4.16667 0 0 4.16667 56.09583499 9.24616105)"/></g></g></svg>

<?xml version="1.0" encoding="UTF-8" standalone="no"?>
<!DOCTYPE svg PUBLIC "-//W3C//DTD SVG 1.1//EN" "http://www.w3.org/Graphics/SVG/1.1/DTD/svg11.dtd">
<svg width="100%" height="100%" viewBox="0 0 118 120" version="1.1" xmlns="http://www.w3.org/2000/svg" xmlns:xlink="http://www.w3.org/1999/xlink" xml:space="preserve" xmlns:serif="http://www.serif.com/" style="fill-rule:evenodd;clip-rule:evenodd;stroke-linejoin:round;stroke-miterlimit:2;">
    <g transform="matrix(1,0,0,1,-779.309,-7575.59)">
        <g transform="matrix(4.16667,0,0,4.16667,0,7175.19)">
            <g transform="matrix(1,0,0,1,208.359,125.407)">
                <path d="M0,-26.646C2.004,-25.031 2.248,-24.839 3.135,-23.925C7.465,-19.466 7.701,-11.201 2.101,-5.699C-3.35,-0.344 -10.181,0 -14.995,-3.734C-16.284,-4.734 -18.291,-6.61 -19.196,-8.743L0,-26.646Z" style="fill:rgb(151,85,162);fill-rule:nonzero;"/>
            </g>
        </g>
        <g transform="matrix(4.16667,0,0,4.16667,0,7175.19)">
            <g transform="matrix(-0.730632,-0.682772,-0.682772,0.730632,186.572,109.474)">
                <path d="M-9.063,-22.722C-15.099,-22.779 -20.395,-17.091 -20.064,-9.351C-19.741,-1.819 -15.049,3.031 -9.063,3.584C-3.938,4.055 2.042,-1.687 1.935,-9.225C1.829,-16.764 -3.504,-22.67 -9.063,-22.722" style="fill:rgb(197,138,189);fill-rule:nonzero;"/>
            </g>
        </g>
        <g transform="matrix(4.16667,0,0,4.16667,0,7175.19)">
            <g transform="matrix(1,0,0,1,202.076,118.717)">
                <path d="M0,-21.474C-3.495,-21.474 -7.328,-19.888 -10.2,-16.902C-12.779,-14.218 -14.108,-10.615 -13.846,-7.016C-13.655,-4.395 -12.607,-2.164 -10.972,-0.896C-6.232,2.779 0.239,2.018 5.133,-2.79C7.811,-5.421 9.313,-8.864 9.255,-12.234C9.208,-15.004 8.136,-17.488 6.239,-19.228C4.585,-20.745 2.371,-21.474 0,-21.474M-4.291,2.59C-6.907,2.59 -9.465,1.745 -11.685,0.023C-13.581,-1.447 -14.791,-3.982 -15.006,-6.932C-15.292,-10.859 -13.846,-14.787 -11.038,-17.707C-5.792,-23.164 2.48,-24.253 7.025,-20.085C9.16,-18.127 10.365,-15.346 10.419,-12.253C10.482,-8.566 8.853,-4.814 5.948,-1.96C2.887,1.047 -0.756,2.589 -4.291,2.59" style="fill:rgb(35,31,32);fill-rule:nonzero;"/>
            </g>
        </g>
        <g transform="matrix(4.16667,0,0,4.16667,0,7175.19)">
            <g transform="matrix(1,0,0,1,197.561,100.517)">
                <path d="M0,16.074C-4.777,16.276 -6.18,12.35 -6.301,10.685C-6.493,8.056 -5.47,5.304 -3.567,3.324C-1.444,1.116 1.471,-0.202 4.23,-0.202C5.888,-0.202 7.322,0.275 8.268,1.142C9.492,2.265 10.184,3.906 10.216,5.763C10.259,8.234 9.116,10.799 7.08,12.799C4.898,14.941 2.45,16.074 0,16.074" style="fill:rgb(151,85,162);fill-rule:nonzero;"/>
            </g>
        </g>
        <g transform="matrix(4.16667,0,0,4.16667,0,7175.19)">
            <g transform="matrix(1,0,0,1,198.271,102.022)">
                <path d="M0,15.008C-4.46,15.196 -5.77,11.531 -5.883,9.977C-6.062,7.523 -5.107,4.953 -3.33,3.105C-1.348,1.043 1.373,-0.188 3.949,-0.188C5.497,-0.188 6.835,0.258 7.718,1.068C8.862,2.115 9.508,3.648 9.538,5.382C9.578,7.689 8.51,10.082 6.609,11.949C4.573,13.95 2.288,15.008 0,15.008" style="fill:rgb(197,138,189);fill-rule:nonzero;"/>
            </g>
        </g>
        <g transform="matrix(4.16667,0,0,4.16667,0,7175.19)">
            <g transform="matrix(1,0,0,1,201.79,116.018)">
                <path d="M0,-15.121C-2.604,-15.121 -5.362,-13.87 -7.377,-11.773C-9.169,-9.909 -10.131,-7.324 -9.951,-4.857C-9.848,-3.446 -8.64,0.176 -4.255,-0.008L-4.23,-0.008C-1.936,-0.008 0.372,-1.083 2.442,-3.117C4.365,-5.006 5.444,-7.415 5.404,-9.726C5.375,-11.423 4.75,-12.916 3.645,-13.93C2.806,-14.698 1.512,-15.121 0,-15.121M-4.589,1.163C-9.573,1.163 -10.989,-3.091 -11.112,-4.773C-11.315,-7.563 -10.232,-10.481 -8.216,-12.58C-5.986,-14.899 -2.915,-16.284 0,-16.284C1.804,-16.284 3.377,-15.753 4.431,-14.787C5.774,-13.556 6.533,-11.766 6.568,-9.747C6.613,-7.117 5.407,-4.398 3.257,-2.287C0.969,-0.039 -1.616,1.151 -4.218,1.155C-4.343,1.16 -4.468,1.163 -4.589,1.163" style="fill:rgb(35,31,32);fill-rule:nonzero;"/>
            </g>
        </g>
        <g transform="matrix(4.16667,0,0,4.16667,0,7175.19)">
            <g transform="matrix(1,0,0,1,200.497,98.315)">
                <path d="M0,26.418C-2.65,26.418 -5.24,25.562 -7.489,23.818C-8.455,23.068 -10.816,21.058 -11.869,18.576C-11.994,18.28 -11.856,17.939 -11.561,17.814C-11.265,17.689 -10.923,17.826 -10.798,18.122C-9.826,20.414 -7.474,22.357 -6.776,22.898C-1.97,26.626 4.593,25.855 9.556,20.979C13.986,16.625 15.456,8.593 10.58,3.572C9.743,2.71 9.507,2.52 7.668,1.036L7.498,0.898C7.247,0.697 7.208,0.331 7.41,0.081C7.612,-0.17 7.978,-0.208 8.228,-0.007L8.399,0.131C10.245,1.62 10.529,1.849 11.415,2.762C13.663,5.076 14.892,8.409 14.786,11.906C14.674,15.605 13.106,19.121 10.371,21.809C7.27,24.855 3.58,26.417 0,26.418" style="fill:rgb(35,31,32);fill-rule:nonzero;"/>
            </g>
        </g>
    </g>
</svg>
